X:587
T:Sir David Davidson of Cantray
C:Joe Buchanan's Scottish Tome - Page 161.2
I:161 2
Z:Carl Allison
R:Reel
L:1/8
M:4/4
K:D
A | "D"d2 (fd) cdBd | "D"AdFd "Em"Ee"A7"dA | "D"d2 (fd) BdGF | "Em7"GE"A7"eB "D"d2 dA |
"D"d2 (fd) cdBd | "D"AdFd "Em"Ee"A7"cA | "D"d2 (fd) cdAF | "Em"GE"A7"dc "D"d2 d :|
f | "D"afdf afba | "Em"gfed "F#m"Bdef | "Em"gfed "A7"cbag | "D"fedc d2 (df) |
"D"afdf "B7"afba | "Em"gfed "A7"cBAG | "D"FAdc "Em"Bbge | "A7"cABc de :|

